X:1
T:Title
%%score { ( 1 3 5 ) | ( 2 4 ) }
L:1/8
Q:1/4=192
M:4/2
K:A
V:1 treble nm="Grand Piano"
V:3 treble 
V:5 treble 
V:2 treble 
V:4 treble 
V:1
 E4 A2 c2 c4 B4 | A16 | [FA]4 [EG]2 F2 E4 D4 | C16 | E4 F2 G2 A4 c4 | d8 z8 | A4 G4 c4 B4 | %7
w: Arthur~Page * * * *|||||||
 [CA]16 |] %8
w: |
V:2
 [A,C]4 [A,CE]2 [A,EA]2 [A,EG]4 [A,DG]4 | [A,E]8 z8 | [D,A,]4 [D,A,]2 [D,A,D]2 [E,A,C]4 [E,G,B,]4 | %3
 [A,,A,]16 | [A,C]4 [A,CE]2 [A,CE]2 [A,CE]4 [G,A,E]4 | [F,^A,E]4 [^A,,F,]4 [B,,F,]4 [B,,^E,]4 | %6
 [E,D]4 [E,B,D]4 [E,F,E]4 [E,G,D]4 | [A,,A,]16 |] %8
V:3
 x16 | z8 ^E8 | x16 | x16 | x16 | z4 z2 c2 [DF]4 [DA]4 | x16 | x16 |] %8
V:4
 x16 | C8- [C,-A,-C]4 [C,A,]4 | x16 | x16 | x16 | x16 | x16 | x16 |] %8
V:5
 x16 | x16 | x16 | x16 | x16 | z4 E4 z8 | x16 | x16 |] %8

